!!!!SEGMENT:Mimu.krn
!!!OTL:美舞
!!!OPR:Eiga Banso Kyokusyu,jidai-geki,kouhen
!!!YOY:1928
!!!ONB:Nigiyakanaru_bamen
**kern
*clefG2
*k[f#]
*G:
*M2/4
=1
4cc#X
4b
=2
4g
4f#
=3
8f#L
8e
8f#
8gJ
=4
8bL
8bJ
4r
=5
4ee
8ff#L
8ff#J
=6
8eeL
8ff#J
8r
8ee
=7
8ff#L
8eeJ
8ccL
8bJ
=8
8aL
8bJ
8r
8ee
=9
8ff#L
8eeJ
8ccL
8eeJ
=10
4b
4f#
=11
8f#L
8bJ
8f#L
8bJ
=12
8f#L
8f#J 8b
4r
==
*-
